icons/.local/share/icons/We10X-black-dark/places/symbolic/document-open-recent-symbolic.svg

<?xml version="1.0" encoding="UTF-8" standalone="no"?>
<svg
   width="16"
   height="16"
   version="1.1"
   id="svg13"
   sodipodi:docname="document-open-recent-symbolic.svg"
   inkscape:version="1.1 (c4e8f9ed74, 2021-05-24)"
   xmlns:inkscape="http://www.inkscape.org/namespaces/inkscape"
   xmlns:sodipodi="http://sodipodi.sourceforge.net/DTD/sodipodi-0.dtd"
   xmlns:xlink="http://www.w3.org/1999/xlink"
   xmlns="http://www.w3.org/2000/svg"
   xmlns:svg="http://www.w3.org/2000/svg">
  <sodipodi:namedview
     id="namedview15"
     pagecolor="#ffffff"
     bordercolor="#999999"
     borderopacity="1"
     inkscape:pageshadow="0"
     inkscape:pageopacity="0"
     inkscape:pagecheckerboard="0"
     showgrid="false"
     inkscape:zoom="13.109375"
     inkscape:cx="19.108462"
     inkscape:cy="10.450536"
     inkscape:window-width="1920"
     inkscape:window-height="997"
     inkscape:window-x="0"
     inkscape:window-y="0"
     inkscape:window-maximized="1"
     inkscape:current-layer="svg13" />
  <defs
     id="defs3">
    <style
       id="current-color-scheme"
       type="text/css">.ColorScheme-Text { color:#dedede; }</style>
    <linearGradient
       id="linearGradient947"
       x1="-16.139999"
       x2="-1.0699"
       y1="-55.616001"
       y2="-44.834999"
       gradientTransform="matrix(1,0,0,1.1,16.669,62.435)"
       gradientUnits="userSpaceOnUse"
       xlink:href="#linearGradient969" />
    <linearGradient
       id="linearGradient969"
       x1="-16.139999"
       x2="-1.0699"
       y1="-55.616001"
       y2="-44.834999"
       gradientTransform="matrix(1,0,0,1.1,16.669,62.435)"
       gradientUnits="userSpaceOnUse">
      <stop
         stop-color="#e1a000"
         offset="0"
         id="stop4" />
      <stop
         stop-color="#ffdc6e"
         offset="1"
         id="stop6" />
    </linearGradient>
    <linearGradient
       id="linearGradient1006"
       x1="0.52938998"
       x2="16.216999"
       y1="2.7783999"
       y2="14.872"
       gradientTransform="matrix(1,0,0,1.1,16.669,62.435)"
       gradientUnits="userSpaceOnUse">
      <stop
         stop-color="#e1a000"
         offset="0"
         id="stop9" />
      <stop
         stop-color="#ffdc6e"
         offset="1"
         id="stop11" />
    </linearGradient>
    <linearGradient
       id="linearGradient1064"
       x1="-15.961"
       x2="-0.30109"
       y1="-43.254002"
       y2="-54.195999"
       gradientTransform="matrix(3.7796,0,0,4.1576,11.524,213.8)"
       gradientUnits="userSpaceOnUse">
      <stop
         stop-color="#ffc832"
         offset="0"
         id="stop14" />
      <stop
         stop-color="#ffdc6e"
         offset="1"
         id="stop16" />
    </linearGradient>
    <linearGradient
       inkscape:collect="always"
       xlink:href="#linearGradient969"
       id="linearGradient880"
       gradientUnits="userSpaceOnUse"
       gradientTransform="matrix(1,0,0,1.1,16.669,62.435)"
       x1="-16.139999"
       y1="-55.616001"
       x2="-1.0699"
       y2="-44.834999" />
  </defs>
  <g
     style="fill:currentColor"
     class="ColorScheme-Text"
     id="g11"
     transform="translate(20.032051)">
    <path
       d="M 8,0 A 8,8 0 0 0 0,8 8,8 0 0 0 8,16 8,8 0 0 0 16,8 8,8 0 0 0 8,0 Z M 8,1 A 7,7 0 0 1 15,8 7,7 0 0 1 8,15 7,7 0 0 1 1,8 7,7 0 0 1 8,1 Z"
       id="path5" />
    <rect
       x="8"
       y="2"
       width="1"
       height="7"
       ry="0.5"
       id="rect7" />
    <rect
       transform="rotate(90)"
       x="8"
       y="-9"
       width="1"
       height="6"
       ry="0.5"
       id="rect9" />
  </g>
  <g
     transform="matrix(0.26666,0,0,0.26666,13.194343,4.9148628)"
     id="g43">
    <g
       transform="matrix(3.7796,0,0,3.7796,-51.477,-22.181)"
       id="g35">
      <g
         transform="matrix(1,0,0,1.1,16.669,63.956)"
         fill="url(#linearGradient947)"
         stroke-width="0.66145"
         id="g29"
         style="fill:url(#linearGradient947)">
        <path
           d="m -8.2026,-51.317 h -7.9373 v -3.6379 c 0,-0.36531 0.29614,-0.66144 0.66144,-0.66144 h 5.6223 l 1.6536,1.3229 z"
           fill="url(#linearGradient947)"
           id="path27"
           style="fill:url(#linearGradient880)" />
      </g>
      <rect
         x="0.52938998"
         y="4.2333002"
         width="15.874"
         height="10.848"
         ry="0.79373002"
         fill="url(#linearGradient1006)"
         id="rect31"
         style="fill:url(#linearGradient1006)" />
      <rect
         x="0.97311002"
         y="4.6963"
         width="14.987"
         height="9.9216995"
         ry="0.29919001"
         fill="#fffffc"
         id="rect33" />
    </g>
    <rect
       x="-43.479"
       y="6.1346002"
       width="48.000999"
       height="1"
       ry="0.5"
       fill="#dcdcdc"
       stroke-width="3.3806"
       id="rect37" />
    <rect
       x="-43.479"
       y="12.219"
       width="48.000999"
       height="1"
       ry="0.5"
       fill="#dcdcdc"
       stroke-width="3.3806"
       id="rect39" />
    <path
       d="m 8.0201,16.191 h -27.5 l -6.2499,5.5001 h -21.25 c -1.3807,0 -2.5,1.2312 -2.5,2.75 v 7.6269 c 0,1.5188 1.1193,2.75 2.5,2.75 h 55.001 c 1.3807,0 2.5,-1.2312 2.5,-2.75 V 18.941 c 0,-1.5188 -1.1193,-2.75 -2.5,-2.75 z"
       fill="url(#linearGradient1064)"
       stroke-width="2.622"
       id="path41"
       style="fill:url(#linearGradient1064)" />
  </g>
</svg>

<svg width="16" height="16" version="1.1" xmlns="http://www.w3.org/2000/svg">
 <defs>
  <style id="current-color-scheme" type="text/css">.ColorScheme-Text { color:#dedede; }</style>
 </defs>
 <g style="fill:currentColor" class="ColorScheme-Text">
  <path d="m8 0a8 8 0 0 0-8 8 8 8 0 0 0 8 8 8 8 0 0 0 8-8 8 8 0 0 0-8-8zm0 1a7 7 0 0 1 7 7 7 7 0 0 1-7 7 7 7 0 0 1-7-7 7 7 0 0 1 7-7z"/>
  <rect x="8" y="2" width="1" height="7" ry=".5"/>
  <rect transform="rotate(90)" x="8" y="-9" width="1" height="6" ry=".5"/>
 </g>
</svg>
